svg/fluentui-system-icons/ic_fluent_projection_screen_20_regular.svg

<svg width="20" height="20" viewBox="0 0 20 20" fill="none" xmlns="http://www.w3.org/2000/svg">
<path d="M3 3C2.44772 3 2 3.44772 2 4C2 4.55228 2.44772 5 3 5V11C3 12.6569 4.34315 14 6 14H9.5V16H7.5C7.22386 16 7 16.2239 7 16.5C7 16.7761 7.22386 17 7.5 17H12.5C12.7761 17 13 16.7761 13 16.5C13 16.2239 12.7761 16 12.5 16H10.5V14H14C15.6569 14 17 12.6569 17 11V5C17.5523 5 18 4.55228 18 4C18 3.44772 17.5523 3 17 3H3ZM4 5H16V11C16 12.1046 15.1046 13 14 13H6C4.89543 13 4 12.1046 4 11V5Z" fill="#212121"/>
</svg>

<svg xmlns="http://www.w3.org/2000/svg" width="20" height="20"><path d="M3 3a1 1 0 0 0 0 2v6a3 3 0 0 0 3 3h3.5v2h-2a.5.5 0 0 0 0 1h5a.5.5 0 0 0 0-1h-2v-2H14a3 3 0 0 0 3-3V5a1 1 0 1 0 0-2H3Zm1 2h12v6a2 2 0 0 1-2 2H6a2 2 0 0 1-2-2V5Z"/></svg>
